X:186
T:Lilting Banshee, The
T:Miller of Glenmire, The
R:jig
S:Mary Bergin
H:Bars 1 and 5 also played |EAA EAc|
Z:id:hn-jig-186
M:6/8
K:Ador
EAA EAA|BAB G2A|Bee edB|dBA GED|EAA EAA|BAB G2A|Bee edB|1 dBA A2G:|2 dBA ABd||
eaa age|dBA G2A|Bee edB|def ~g3|eaa age|dBA G2A|Bee edB|1 dBA ABd:|2 dBA A2G||

